X: 1
T: Lass On The Strand, The
M: 4/4
L: 1/8
R: hornpipe
K: Gmaj
ga|:bgdB GBdg|fecA E2(3EEE|DdcA FDEF|GABc d2ga|
bgdB GBdg|fecA E2(3EEE|DdcA FDEF|1 G2 B2 G2 ga:|2 G2 B2 G2AG||
FGAB cDEF|GABc d2dB|AGAB cDEF|GABc d2ga|
bgdB GBdg|fecA E2(3EEE|DdcA FDEF|1 G2 B2 G2 AG:|2 G2 B2 G4||
